Yosa-Max-Dark/actions/22x22/upload-media.svg

<?xml version="1.0" encoding="UTF-8"?>
<svg viewBox="0 0 22 22" xmlns="http://www.w3.org/2000/svg">
 <defs id="defs3051">
  <style id="current-color-scheme" type="text/css">.ColorScheme-Text {
        color:#dfdfdf;
      }</style>
 </defs>
 <path class="ColorScheme-Text" d="m3 3v16h16v-11h-1v10h-14v-14h9v-1h-10zm12.5 0-0.707031 0.7070312-2.792969 2.7929688 0.707031 0.7070312 2.292969-2.2929687v4.2929687 0.7929688h1v-5.0859375l2.292969 2.2929687 0.707031-0.7070312-2.792969-2.7929688-0.707031-0.7070312zm-8 2c-1.385 0-2.5 1.115-2.5 2.5s1.115 2.5 2.5 2.5 2.5-1.115 2.5-2.5-1.115-2.5-2.5-2.5zm0 1c0.831 0 1.5 0.669 1.5 1.5s-0.669 1.5-1.5 1.5-1.5-0.669-1.5-1.5 0.669-1.5 1.5-1.5zm6.494141 4-3.345703 3.34375-1.3417974-1.34375-0.0058594 0.007812-0.0078124-0.007812-4.2929688 4.292969 0.7070312 0.707031 3.5917969-3.591797 0.6425781 0.642578 0.7070318 0.707031 3.351562-3.351562 2.292969 2.292969 0.707031-0.707031-2.992188-2.992188-0.007812 0.007812-0.005859-0.007812z" style="fill:currentColor"/>
</svg>

<svg xmlns="http://www.w3.org/2000/svg" viewBox="0 0 22 22">
  <defs id="defs3051">
    <style type="text/css" id="current-color-scheme">
      .ColorScheme-Text {
        color:#dfdfdf;
      }
      </style>
  </defs>
 <path 
    style="fill:currentColor;fill-opacity:1;stroke:none" 
    d="M 3 3 L 3 19 L 19 19 L 19 8 L 18 8 L 18 18 L 4 18 L 4 4 L 13 4 L 13 3 L 3 3 z M 15.5 3 L 14.792969 3.7070312 L 12 6.5 L 12.707031 7.2070312 L 15 4.9140625 L 15 9.2070312 L 15 10 L 16 10 L 16 4.9140625 L 18.292969 7.2070312 L 19 6.5 L 16.207031 3.7070312 L 15.5 3 z M 7.5 5 C 6.115 5 5 6.115 5 7.5 C 5 8.885 6.115 10 7.5 10 C 8.885 10 10 8.885 10 7.5 C 10 6.115 8.885 5 7.5 5 z M 7.5 6 C 8.331 6 9 6.669 9 7.5 C 9 8.331 8.331 9 7.5 9 C 6.669 9 6 8.331 6 7.5 C 6 6.669 6.669 6 7.5 6 z M 13.994141 10 L 10.648438 13.34375 L 9.3066406 12 L 9.3007812 12.007812 L 9.2929688 12 L 5 16.292969 L 5.7070312 17 L 9.2988281 13.408203 L 9.9414062 14.050781 L 10.648438 14.757812 L 11.355469 14.050781 L 14 11.40625 L 16.292969 13.699219 L 17 12.992188 L 14.007812 10 L 14 10.007812 L 13.994141 10 z "
	class="ColorScheme-Text"
    />  
</svg>
